X: 1
P: The Fisher's Wedding
C: Athole, arr. T. Traub 2-11-2000 (mods. 8-28-03)
R: reel
M: 4/4
K: F
L: 1/8
|: C|"F"F2 Ac dcAc|"Bb"dFcF "C"AGGA|"Dm"F2 Ac "Bb"dcde|"C"fgag "F"f2 f :|
|: e|"F"fc c/c/c "Bb"dBAB|"Gm"cfba "C"gfed|"F"cfag "Bb"fdcA|"C"BGcA "F"F/F/F F :|
